app/dist/common/images/caredx.svg

<svg fill="none" height="18" width="18" xmlns="http://www.w3.org/2000/svg"><path d="m0 0h18v18h-18z" fill="#cb3b43"/><path clip-rule="evenodd" d="m9 3h-1v1h1zm1 2h1.002v1h-1.002v.994h-1v-.994h1zm0 2h.995v1.004h-.995zm-1 3v-2h-1v1h-1.443a18.636 18.636 0 0 0 -.423 1.578 3.072 3.072 0 0 0 -.12 1.198c.152 1.53 1.431 2.724 2.986 2.724 1.556 0 2.835-1.194 2.985-2.724.04-.402 0-.812-.119-1.198-.147-.66-.42-1.434-.838-2.578h-.028v1h-1v-.996 1.996zm0 0h-1v1h1zm1 2h-1v1h1zm0 0h1v-1h-1z" fill="#fff" fill-rule="evenodd"/></svg>

<!-- by TradingView --><svg width="18" height="18" fill="none" xmlns="http://www.w3.org/2000/svg"><path fill="#CB3B43" d="M0 0h18v18H0z"/><path fill-rule="evenodd" clip-rule="evenodd" d="M9 3H8v1h1V3zm1 2h1.002v1H10v.994H9V6h1V5zm0 2h.995v1.004H10V7zm-1 3V8H8v1H6.557a18.636 18.636 0 00-.423 1.578 3.072 3.072 0 00-.12 1.198C6.166 13.306 7.445 14.5 9 14.5c1.556 0 2.835-1.194 2.985-2.724.04-.402 0-.812-.119-1.198-.147-.66-.42-1.434-.838-2.578H11v1h-1v-.996V10H9zm0 0H8v1h1v-1zm1 2H9v1h1v-1zm0 0h1v-1h-1v1z" fill="#fff"/></svg>
